X: 16
T:Klang, mina vackra bj\"allra
M:3/4
L:1/8
C:anon.
O:Sweden
Z:Transcribed by Frank Nordberg - http://www.musicaviva.com
K:F
a>f cc BB|AA c/B/A/B/ c2|a>f cc BB|AA c/B/A/B/ c2|
d>B f>d B>d|c>B A>B c2|dd/B/ ff/d/ BB/d/|
c>B A/G/A/B/c2|d>B ba gf|e/f/g/a/ g2 f2"Fine"||
e>f gg/a/ gg/a/|gf ed c2|e>f gg/a/ gg/a/|gf ed c2"D.C."||
W:
W: From "Falaleiro" http://home.t-online.de/home/pheld/homepage.htm

